packages/foundations/assets/icons/functional/images/maps/navigation_to_left.svg

<svg xmlns="http://www.w3.org/2000/svg" width="32" height="32" fill="none"><path fill="#1A1C1F" fill-rule="evenodd" d="M14.053 4.145c-.058.014-.19.088-.293.165-.26.193-4.001 3.906-4.667 4.632-.598.653-.665.797-.557 1.204.053.201.359.525 2.655 2.817 1.428 1.424 2.714 2.666 2.858 2.76.312.203.539.218.869.058.353-.171.513-.417.54-.829.018-.297.004-.368-.114-.545-.074-.112-.86-.94-1.746-1.839l-1.61-1.635 2.339.002c1.287 0 2.568.024 2.846.051 1.484.146 2.874 1.091 3.693 2.512.211.364.456 1.013.527 1.393.044.238.072 2.081.095 6.318l.032 5.982.161.231c.216.312.556.486.891.456.279-.024.625-.222.767-.439.154-.235.189-1.759.165-7.172-.024-5.603-.016-5.448-.336-6.461a7.05 7.05 0 0 0-4.928-4.667c-.697-.181-1.583-.23-4.156-.231l-2.155-.001 1.524-1.538c.838-.845 1.598-1.654 1.689-1.797.196-.308.208-.52.052-.853-.216-.458-.672-.688-1.141-.574"/></svg>

<svg width="32" height="32" viewBox="0 0 32 32" fill="none" xmlns="http://www.w3.org/2000/svg"><path d="M14.053 4.145 C 13.995 4.159,13.863 4.233,13.760 4.310 C 13.500 4.503,9.759 8.216,9.093 8.942 C 8.495 9.595,8.428 9.739,8.536 10.146 C 8.589 10.347,8.895 10.671,11.191 12.963 C 12.619 14.387,13.905 15.629,14.049 15.723 C 14.361 15.926,14.588 15.941,14.918 15.781 C 15.271 15.610,15.431 15.364,15.458 14.952 C 15.476 14.655,15.462 14.584,15.344 14.407 C 15.270 14.295,14.484 13.467,13.598 12.568 L 11.988 10.933 14.327 10.935 C 15.614 10.935,16.895 10.959,17.173 10.986 C 18.657 11.132,20.047 12.077,20.866 13.498 C 21.077 13.862,21.322 14.511,21.393 14.891 C 21.437 15.129,21.465 16.972,21.488 21.209 L 21.520 27.191 21.681 27.422 C 21.897 27.734,22.237 27.908,22.572 27.878 C 22.851 27.854,23.197 27.656,23.339 27.439 C 23.493 27.204,23.528 25.680,23.504 20.267 C 23.480 14.664,23.488 14.819,23.168 13.806 C 22.447 11.525,20.563 9.740,18.240 9.139 C 17.543 8.958,16.657 8.909,14.084 8.908 L 11.929 8.907 13.453 7.369 C 14.291 6.524,15.051 5.715,15.142 5.572 C 15.338 5.264,15.350 5.052,15.194 4.719 C 14.978 4.261,14.522 4.031,14.053 4.145 " fill="#1A1C1F" stroke="none" fill-rule="evenodd"></path></svg>
